X:4652
L:1/8
M:6/8
K:D
 A | A>FA d>ef | e d2 z2 d | dfa afd | f e2 z2 d | b>ab a2 a | g>fg f2 e | fef dBA | (B3 d2) :: A | 
 A>BA AFA | d2 f/e/ d2 d | dfa afd | f e2 z2 d | b>ab a2 a | g>fg f2 e | fef dBA | (B3 d2) :|

